images/construction/barricade.svg

<?xml version="1.0" standalone="no"?><!DOCTYPE svg PUBLIC "-//W3C//DTD SVG 1.1//EN" "http://www.w3.org/Graphics/SVG/1.1/DTD/svg11.dtd"><svg width="96px" height="168px" version="1.1" xmlns="http://www.w3.org/2000/svg" xmlns:xlink="http://www.w3.org/1999/xlink" xml:space="preserve" style="fill-rule:evenodd;clip-rule:evenodd;stroke-linejoin:round;stroke-miterlimit:1.41421;"><g><g id="barricade" transform="matrix(0.5,0,0,0.5,24,84.5)"><g transform="matrix(1.99989,-9.86076e-32,-9.86076e-32,1.99989,-279.013,-166.982)"><path d="M118.614,167l13.64,0l14.246,-67.333l-12.555,-0.406l-15.331,67.739Z" style="fill:#d8d3cb;fill-rule:nonzero;"/></g><g transform="matrix(1.99989,-9.86076e-32,-9.86076e-32,1.99989,-279.013,-166.982)"><path d="M181.531,99.6674l14.245,67.333l13.642,0l-15.332,-67.74l-12.555,0.407Z" style="fill:#d8d3cb;fill-rule:nonzero;"/></g><g transform="matrix(1.99989,-9.86076e-32,-9.86076e-32,1.99989,-279.013,-166.982)"><path d="M119.013,118.126l88.659,-0.056l1.322,-14.198l-91.381,-0.019l1.4,14.273Z" style="fill:#f4f2ed;fill-rule:nonzero;"/></g><g transform="matrix(1.99989,-9.86076e-32,-9.86076e-32,1.99989,-279.013,-166.982)"><path d="M119.013,118.126l0.455,0l14.27,-14.27l-16.125,-0.003l1.4,14.273Z" style="fill:#ad2125;fill-rule:nonzero;"/></g><g transform="matrix(1.99989,-9.86076e-32,-9.86076e-32,1.99989,-279.013,-166.982)"><path d="M195.058,118.078l12.614,-0.008l1.295,-13.901l-13.909,13.909Z" style="fill:#ad2125;fill-rule:nonzero;"/></g><g transform="matrix(1.99989,-9.86076e-32,-9.86076e-32,1.99989,-279.013,-166.982)"><path d="M133.283,118.117l17.45,-0.011l14.244,-14.243l-17.436,-0.004l-14.258,14.258Z" style="fill:#ad2125;fill-rule:nonzero;"/></g><g transform="matrix(1.99989,-9.86076e-32,-9.86076e-32,1.99989,-279.013,-166.982)"><path d="M164.302,118.098l17.451,-0.011l14.218,-14.217l-17.437,-0.004l-14.232,14.232Z" style="fill:#ad2125;fill-rule:nonzero;"/></g><g transform="matrix(1.99989,-9.86076e-32,-9.86076e-32,1.99989,-279.013,-166.982)"><path d="M117.613,141.399l91.382,-0.019l-1.323,-14.198l-88.659,-0.055l-1.4,14.272Z" style="fill:#f4f2ed;fill-rule:nonzero;"/></g><g transform="matrix(1.99989,-9.86076e-32,-9.86076e-32,1.99989,-279.013,-166.982)"><path d="M117.613,141.399l0.583,0l14.264,-14.264l-13.447,-0.008l-1.4,14.272Z" style="fill:#ad2125;fill-rule:nonzero;"/></g><g transform="matrix(1.99989,-9.86076e-32,-9.86076e-32,1.99989,-279.013,-166.982)"><path d="M193.754,141.383l15.24,-0.003l-1.298,-13.939l-13.942,13.942Z" style="fill:#ad2125;fill-rule:nonzero;"/></g><g transform="matrix(1.99989,-9.86076e-32,-9.86076e-32,1.99989,-279.013,-166.982)"><path d="M132.006,141.396l17.442,-0.004l14.238,-14.238l-17.428,-0.01l-14.252,14.252Z" style="fill:#ad2125;fill-rule:nonzero;"/></g><g transform="matrix(1.99989,-9.86076e-32,-9.86076e-32,1.99989,-279.013,-166.982)"><path d="M163.012,141.389l17.443,-0.004l14.212,-14.212l-17.428,-0.011l-14.227,14.227Z" style="fill:#ad2125;fill-rule:nonzero;"/></g></g></g></svg>

<?xml version="1.0" encoding="UTF-8" standalone="no"?>
<!DOCTYPE svg PUBLIC "-//W3C//DTD SVG 1.1//EN" "http://www.w3.org/Graphics/SVG/1.1/DTD/svg11.dtd">
<svg width="100%" height="100%" viewBox="0 0 96 72" version="1.1" xmlns="http://www.w3.org/2000/svg" xmlns:xlink="http://www.w3.org/1999/xlink" xml:space="preserve" xmlns:serif="http://www.serif.com/" style="fill-rule:evenodd;clip-rule:evenodd;stroke-linejoin:round;stroke-miterlimit:2;">
    <g id="barricade" transform="matrix(0.5,0,0,0.5,24,-11.5)">
        <g transform="matrix(1.99989,-9.86076e-32,-9.86076e-32,1.99989,-279.013,-166.982)">
            <path d="M118.614,167L132.254,167L146.5,99.667L133.945,99.261L118.614,167Z" style="fill:rgb(216,211,203);fill-rule:nonzero;"/>
        </g>
        <g transform="matrix(1.99989,-9.86076e-32,-9.86076e-32,1.99989,-279.013,-166.982)">
            <path d="M181.531,99.667L195.776,167L209.418,167L194.086,99.26L181.531,99.667Z" style="fill:rgb(216,211,203);fill-rule:nonzero;"/>
        </g>
        <g transform="matrix(1.99989,-9.86076e-32,-9.86076e-32,1.99989,-279.013,-166.982)">
            <path d="M119.013,118.126L207.672,118.07L208.994,103.872L117.613,103.853L119.013,118.126Z" style="fill:rgb(244,242,237);fill-rule:nonzero;"/>
        </g>
        <g transform="matrix(1.99989,-9.86076e-32,-9.86076e-32,1.99989,-279.013,-166.982)">
            <path d="M119.013,118.126L119.468,118.126L133.738,103.856L117.613,103.853L119.013,118.126Z" style="fill:rgb(173,33,37);fill-rule:nonzero;"/>
        </g>
        <g transform="matrix(1.99989,-9.86076e-32,-9.86076e-32,1.99989,-279.013,-166.982)">
            <path d="M195.058,118.078L207.672,118.071L208.967,104.169L195.058,118.078Z" style="fill:rgb(173,33,37);fill-rule:nonzero;"/>
        </g>
        <g transform="matrix(1.99989,-9.86076e-32,-9.86076e-32,1.99989,-279.013,-166.982)">
            <path d="M133.283,118.117L150.733,118.106L164.977,103.863L147.541,103.859L133.283,118.117Z" style="fill:rgb(173,33,37);fill-rule:nonzero;"/>
        </g>
        <g transform="matrix(1.99989,-9.86076e-32,-9.86076e-32,1.99989,-279.013,-166.982)">
            <path d="M164.302,118.098L181.753,118.087L195.971,103.87L178.534,103.866L164.302,118.098Z" style="fill:rgb(173,33,37);fill-rule:nonzero;"/>
        </g>
        <g transform="matrix(1.99989,-9.86076e-32,-9.86076e-32,1.99989,-279.013,-166.982)">
            <path d="M117.613,141.399L208.995,141.38L207.672,127.182L119.013,127.127L117.613,141.399Z" style="fill:rgb(244,242,237);fill-rule:nonzero;"/>
        </g>
        <g transform="matrix(1.99989,-9.86076e-32,-9.86076e-32,1.99989,-279.013,-166.982)">
            <path d="M117.613,141.399L118.196,141.399L132.46,127.135L119.013,127.127L117.613,141.399Z" style="fill:rgb(173,33,37);fill-rule:nonzero;"/>
        </g>
        <g transform="matrix(1.99989,-9.86076e-32,-9.86076e-32,1.99989,-279.013,-166.982)">
            <path d="M193.754,141.383L208.994,141.38L207.696,127.441L193.754,141.383Z" style="fill:rgb(173,33,37);fill-rule:nonzero;"/>
        </g>
        <g transform="matrix(1.99989,-9.86076e-32,-9.86076e-32,1.99989,-279.013,-166.982)">
            <path d="M132.006,141.396L149.448,141.392L163.686,127.154L146.258,127.144L132.006,141.396Z" style="fill:rgb(173,33,37);fill-rule:nonzero;"/>
        </g>
        <g transform="matrix(1.99989,-9.86076e-32,-9.86076e-32,1.99989,-279.013,-166.982)">
            <path d="M163.012,141.389L180.455,141.385L194.667,127.173L177.239,127.162L163.012,141.389Z" style="fill:rgb(173,33,37);fill-rule:nonzero;"/>
        </g>
    </g>
</svg>
